assets/images/plane.svg

<svg xmlns="http://www.w3.org/2000/svg" viewBox="0 0 20 20"><path d="M6.17609 2.13382C6.08759 1.81522 6.32719 1.5 6.65785 1.5H8.69101C8.8804 1.5 9.05353 1.607 9.13823 1.77639L12.5 8.5H17.5C18.3285 8.5 19 9.17157 19 10C19 10.8284 18.3285 11.5 17.5 11.5H12.5L9.13823 18.2236C9.05353 18.393 8.8804 18.5 8.69101 18.5H6.65785C6.32719 18.5 6.08759 18.1848 6.17609 17.8662L7.94447 11.5H4.83336L4.11399 13.6581C4.04594 13.8623 3.85487 14 3.63965 14H1.69374C1.35246 14 1.11148 13.6657 1.2194 13.3419L2.33336 10L1.2194 6.65811C1.11148 6.33435 1.35246 6 1.69374 6H3.63965C3.85487 6 4.04594 6.13771 4.11399 6.34189L4.83336 8.5H7.94447L6.17609 2.13382Z"/></svg>

<svg xmlns="http://www.w3.org/2000/svg" viewBox="0 0 20 20"><path d="M6.176 2.134a.5.5 0 0 1 .482-.634H8.69a.5.5 0 0 1 .447.276L12.5 8.5h5a1.5 1.5 0 1 1 0 3h-5l-3.362 6.724a.5.5 0 0 1-.447.276H6.658a.5.5 0 0 1-.482-.634L7.944 11.5h-3.11l-.72 2.158A.5.5 0 0 1 3.64 14H1.694a.5.5 0 0 1-.475-.658L2.333 10 1.22 6.658A.5.5 0 0 1 1.694 6H3.64a.5.5 0 0 1 .474.342l.72 2.158h3.11z"/></svg>
